X:4
T:Lucy Farr #1
R:single jig
D:Double Barrelled, John Skelton & Kieran O'Hare
N:hexatonic scale (key D with no c sharps)
Z:Paul Stewart Cranford (P.S.C.), <http://www.cranfordpub.com>
L:1/8
Q:333
M:12/8
K:Dmix
D3 DEG A3 ABd|ege d2 B B2 A AGE|D2 D DEG A3 ABd|~e2 d BAG ~E2 D D2 z:|
|:~a3 aba g2 e edB|~d3 edB ~d3 efg|e2 a aba g2 e ede|ged BAG ~E2 D D2 z:|
